usr/share/icons/biglinux-icons-material-dark/symbolic/actions/dialog-rows-and-columns.svg

<svg xmlns="http://www.w3.org/2000/svg" viewBox="0 0 16 16">
<defs id="defs3051">
<style id="current-color-scheme" type="text/css">
.ColorScheme-Contrast{color:#dedede}
</style>
</defs>
<path d="M2 2v4h6V2zm7 0v6h5V2zM2 9v5h6V9zm7 0v3h5V9z" class="ColorScheme-Contrast" style="fill:currentColor;fill-opacity:1;stroke:none"/>
</svg>

<svg xmlns="http://www.w3.org/2000/svg" viewBox="0 0 16 16">
  <defs id="defs3051">
    <style type="text/css" id="current-color-scheme">
      .ColorScheme-Text {
        color:#dedede;
      }
      </style>
  </defs>
 <path style="fill:currentColor;fill-opacity:1;stroke:none" 
     d="M 2 2 L 2 6 L 8 6 L 8 2 L 2 2 z M 9 2 L 9 8 L 14 8 L 14 2 L 9 2 z M 2 9 L 2 14 L 8 14 L 8 9 L 2 9 z M 9 9 L 9 12 L 14 12 L 14 9 L 9 9 z "
     class="ColorScheme-Text"
     />
</svg>
